icons/lines/tag-two.svg

<svg xmlns="http://www.w3.org/2000/svg" width="24" height="24" viewBox="0 0 24 24" fill="none" stroke="currentColor" stroke-width="2" stroke-linecap="round" stroke-linejoin="round" >
  <path d="M4.40476 15.5264L8.93476 20.0564C10.7948 21.9164 13.8148 21.9164 15.6848 20.0564L20.0748 15.6664C21.9348 13.8064 21.9348 10.7864 20.0748 8.91637L15.5348 4.39637C14.5848 3.44637 13.2748 2.93637 11.9348 3.00637L6.93476 3.24637C4.93476 3.33637 3.34476 4.92637 3.24476 6.91637L3.00476 11.9164C2.94476 13.2664 3.45476 14.5764 4.40476 15.5264Z"/>
  <path d="M9.73486 12.2264C11.1156 12.2264 12.2349 11.1071 12.2349 9.72638C12.2349 8.34567 11.1156 7.22638 9.73486 7.22638C8.35415 7.22638 7.23486 8.34567 7.23486 9.72638C7.23486 11.1071 8.35415 12.2264 9.73486 12.2264Z"/>
  <path d="M13.2349 17.2264L17.2349 13.2264" stroke-miterlimit="10"/>
  </svg>

<svg xmlns="http://www.w3.org/2000/svg" width="24" height="24" viewBox="0 0 24 24" fill="none" stroke="currentColor" stroke-width="2" stroke-linecap="round" stroke-linejoin="round">
  <path d="m13.235 17.226 4-4" />
  <path d="M8.935 20.056a4.78 4.78 0 0 0 6.75 0l4.39-4.39a4.78 4.78 0 0 0 0-6.75l-4.54-4.52a4.75 4.75 0 0 0-3.6-1.39l-5 .24a3.864 3.864 0 0 0-3.69 3.67l-.24 5a4.8 4.8 0 0 0 1.4 3.61z" />
  <circle cx="9.735" cy="9.726" r="2.5" />
</svg>
